!!!OTL: 115. Wiegenlied vom Engelsgesang. / b.
!!!ARE: Europa, Mitteleuropa, Deutschland, Ruhrgebiet
!!!SCT: K0115A
!!!TXL: @@KSH
!!!YEM: Copyright 1995, estate of Helmut Schaffrath.
**kern	**text
*clefG2	*
*M2/4	*
*k[b-]	*
*F:	*
=1	=1
{4cc	Hei-
4a	-jo!
=2	=2
8cc	wär'n
8cc	wir
4a}	do,
=3	=3
{8cc	wo
8cc	die
16a	En-
16a	-gel-
8dd	-ches
=4	=4
4cc	ſin-
4a}	-ge,
=5	=5
{8cc	wo
8cc	die
8a	Schellches
8dd	.
=6	=6
4cc	klin-
4a}	-ge,
=7	=7
{8f	wo
8g	die
8a	bli-
8b-	-blau
=8	=8
8cc	Blöm-
8cc	-kes
4cc}	ſtond,
=9	=9
{8dd	wo
8cc	die
8b-	Sonn
16a	on
16a	der
=10	=10
8g	Mond
16g	ö-
16g	-ver
4f}	gond,
=11	=11
{8f	wo
8g	die
16a	Kenger-
16a	.
8b-	-chens
=12	=12
8g	ſpee-
8g	-len
4f}	gond.
==	==
!!!AGN: Kinder -, Wiegen - Lied
!!!ONB: ESAC (Essen Associative Code) Database: KINDER
!!!AMT: simple duple
!!!AIN: vox
!!!EED: Helmut Schaffrath
!!!EEV: 1.0
!!Aus der Moselgegend (Kluesserath).
!!!GTL: I. Wiegenlieder.
!!@@COMMENT:"Der Reim iſt alt. Schon im Weihnachtsliede Jn dulci jubilo heißt nach Handſchriften des 15. Jahrh. die 3. Strophe: »Ubi sunt gaudia? 
!!Nindert (nirgends) mehr denn do, da die Vöglin ſingen, und die Schellchen klingen in regio curia. Eya qualia! (ſ. Liederhort III. 639.)"
!!@@END:
!!!URL-scan: https://archive.org/details/DeutschesKinderliedUndKinderspiel/page/29/mode/1up
!!!ENC: Anna Maria Matuszewska
!!!EEV: 2024/29/08
*-	*-
